resources/haticons/SVG/elasticstack.svg

<!-- Generated by IcoMoon.io -->
<svg version="1.1" xmlns="http://www.w3.org/2000/svg" width="24" height="24" viewBox="0 0 24 24">
<title>elasticstack</title>
<path fill="#005571" d="M0.070 2.45c0.011-1.31 1.070-2.369 2.379-2.38h19.101c1.31 0.011 2.369 1.070 2.38 2.379v4.781h-23.86zM0.070 16.77h11.33v7.16h-8.95c-0 0-0 0-0.001 0-1.293 0-2.346-1.032-2.379-2.317l-0-0.003zM12.6 16.77h11.33v4.78c0 1.28-1.1 2.38-2.38 2.38h-8.95zM0.070 8.42h23.86v7.16h-23.86z"></path>
</svg>

<svg xmlns="http://www.w3.org/2000/svg" width="24" height="24"><path fill="#005571" d="M.07 2.45A2.4 2.4 0 0 1 2.449.07H21.55a2.4 2.4 0 0 1 2.38 2.379V7.23H.07zm0 14.32H11.4v7.16H2.45h-.001A2.38 2.38 0 0 1 .07 21.613v-.003zm12.53 0h11.33v4.78c0 1.28-1.1 2.38-2.38 2.38H12.6zM.07 8.42h23.86v7.16H.07z"/></svg>
